svg/white/fsn.svg

<svg height="32" viewBox="0 0 32 32" width="32" xmlns="http://www.w3.org/2000/svg"><path d="m4.87568249 27.5h.22345544c.84051724-3.1601649 2.04525862-6.6334992 3.39008621-10.1637735 1.23275862-3.2171047 2.63362066-5.8932804 4.11853446-8.11393674.8965517 0 1.8211207.0569399 2.7737069.11387981 1.1767242.08540986 2.4094828.22775963 3.6702586.39857935 3.8663793.54092908 5.9396552 1.42349768 6.9482759 2.47688598-.924569-3.27404468-4.2586207-6.06410014-10.8426724-6.03563018-.0560345 0-.0840517 0-.1400862 0 2.9418103-3.24557472 5.9676724-4.55519259 8.2090517-3.64415407.112069.02846995.1961207.08540986.2801724.14234977-.5697756-.7571306-1.242397-1.34008171-2.0178644-1.70798158 6.1331195 2.23969898 10.5113989 8.1254391 10.5113989 15.03378116 0 8.836556-7.163444 16-16 16-4.3227291 0-8.24507581-1.7142409-11.12431751-4.5zm-.02801565-.0271719c-2.99011777-2.9071019-4.84766684-6.9730381-4.84766684-11.4728281 0-1.0465761.10048413-2.069683.29233097-3.060199 1.61696757-1.8040242 4.74410607-3.06339737 9.00939317-3.51822157-1.00862069 1.99289677-1.90517242 4.27049307-2.66163793 6.86125887-1.14563705 3.9751417-1.70605255 7.8086934-1.79241937 11.1899898zm-4.46302895-14.9758108c1.59733348-7.1516858 7.98211326-12.4970173 15.61536211-12.4970173 1.492351 0 2.936982.20431384 4.3074468.58649538-2.946608-.55135975-6.3858448 1.54581696-9.3246882 5.93114878-5.35667272.85945701-9.02521976 3.17224157-10.59812071 5.97937314zm17.37829311 3.9851106c-1.7931034 0-3.25 1.4804376-3.25 3.3594546 0 1.850547 1.4568966 3.3594545 3.25 3.3594545 1.7931035 0 3.25-1.5089075 3.25-3.3594545s-1.4568965-3.3594546-3.25-3.3594546z" fill="#fff" fill-rule="evenodd"/></svg>

<svg xmlns="http://www.w3.org/2000/svg" width="32" height="32" viewBox="0 0 32 32">
  <path fill="#FFF" fill-rule="evenodd" d="M4.87568249,27.5 L5.09913793,27.5 C5.93965517,24.3398351 7.14439655,20.8665008 8.48922414,17.3362265 C9.72198276,14.1191218 11.1228448,11.4429461 12.6077586,9.22228976 C13.5043103,9.22228976 14.4288793,9.27922966 15.3814655,9.33616957 C16.5581897,9.42157943 17.7909483,9.5639292 19.0517241,9.73474892 C22.9181034,10.275678 24.9913793,11.1582466 26,12.2116349 C25.075431,8.93759022 21.7413793,6.14753476 15.1573276,6.17600472 C15.1012931,6.17600472 15.0732759,6.17600472 15.0172414,6.17600472 C17.9590517,2.93043 20.9849138,1.62081213 23.2262931,2.53185065 C23.3383621,2.5603206 23.4224138,2.61726051 23.5064655,2.67420042 C22.9366899,1.91706982 22.2640685,1.33411871 21.4886011,0.966218842 C27.6217206,3.20591782 32,9.09165794 32,16 C32,24.836556 24.836556,32 16,32 C11.6772709,32 7.75492419,30.2857591 4.87568249,27.5 Z M4.84766684,27.4728281 C1.85754907,24.5657262 0,20.49979 0,16 C0,14.9534239 0.100484126,13.930317 0.292330969,12.939801 C1.90929854,11.1357768 5.03643704,9.87640363 9.30172414,9.42157943 C8.29310345,11.4144762 7.39655172,13.6920725 6.64008621,16.2828383 C5.49444916,20.25798 4.93403366,24.0915317 4.84766684,27.4728281 Z M0.384637888,12.4970173 C1.98197137,5.3453315 8.36675115,0 16,0 C17.492351,0 18.936982,0.204313843 20.3074468,0.586495377 C17.3608388,0.0351356258 13.921602,2.13231234 10.9827586,6.51764416 C5.62608588,7.37710117 1.95753884,9.68988573 0.384637888,12.4970173 Z M17.762931,16.4821279 C15.9698276,16.4821279 14.512931,17.9625655 14.512931,19.8415825 C14.512931,21.6921295 15.9698276,23.201037 17.762931,23.201037 C19.5560345,23.201037 21.012931,21.6921295 21.012931,19.8415825 C21.012931,17.9910355 19.5560345,16.4821279 17.762931,16.4821279 Z"/>
</svg>
